marketplace_builder/assets/images/temp/help.svg

<svg viewBox="0 0 489.74 489.92" xmlns="http://www.w3.org/2000/svg"><circle cx="244.84" cy="244.82" fill="#d2e2ef" r="176.8"/><g fill="#337ab7" transform="translate(-.09)"><path d="m489.83 244.82a243.67 243.67 0 0 0 -71.7-173.2c-95.5-95.5-250.9-95.5-346.4 0-90.3 90.4-95.8 235.3-13.3 332-8.3 17.6-22.3 39.2-44 49.9a18.24 18.24 0 0 0 5.2 34.4 126.71 126.71 0 0 0 19 1.4c21.8 0 54.5-5.3 87.6-30.1a245 245 0 0 0 363.6-214.4zm-359.83 195.6a8.89 8.89 0 0 0 -11.4 1.9 8.34 8.34 0 0 0 -1.2.8c-40.3 31.3-79.8 29.2-95 26.8 0-.1-.1-.2 0-.2 28.3-13.9 45.3-41.9 54.5-62.9a14.25 14.25 0 0 0 -1.9-11.7c-79.3-89.6-75.1-226 9.5-310.7 88.4-88.4 232.3-88.4 320.7 0a226.82 226.82 0 0 1 -275.2 356z"/><path d="m108.33 357.52a9.13 9.13 0 0 0 -.6 12.8 9.08 9.08 0 0 0 12.8.5 9.13 9.13 0 0 0 .6-12.8 9 9 0 0 0 -12.8-.5z"/><path d="m114.23 134.82a8.9 8.9 0 0 0 6.7-3 9.06 9.06 0 1 0 -12.8.6 8.88 8.88 0 0 0 6.1 2.4z"/><path d="m409.73 213.82a9 9 0 0 0 8.9 7.4 9.85 9.85 0 0 0 1.7-.2 9.11 9.11 0 0 0 7.3-10.6 9.11 9.11 0 0 0 -17.9 3.4z"/><path d="m89.93 330.52a9.09 9.09 0 0 0 4.8 16.8 8.61 8.61 0 0 0 4.8-1.4 9.17 9.17 0 0 0 2.9-12.5 9.06 9.06 0 0 0 -12.5-2.9z"/><path d="m319.53 94.63a9.68 9.68 0 0 0 4 .9 9 9 0 0 0 8.1-5 9.1 9.1 0 0 0 -16.3-8.1 9.28 9.28 0 0 0 4.2 12.2z"/><path d="m401.23 184.13a9 9 0 0 0 8.4 5.8 9.6 9.6 0 0 0 3.3-.6 9.05 9.05 0 1 0 -11.7-5.2z"/><path d="m290.73 83.43a10.68 10.68 0 0 0 2.5.3 9 9 0 1 0 -2.5-.3z"/><path d="m88.63 305.73a9.05 9.05 0 1 0 -8.5 12.3 9.6 9.6 0 0 0 3.3-.6 9 9 0 0 0 5.2-11.7z"/><path d="m319.83 394.92a9.1 9.1 0 1 0 12.1 4.1 8.82 8.82 0 0 0 -12.1-4.1z"/><path d="m421.63 235.52a9.05 9.05 0 1 0 9.1 9 9.13 9.13 0 0 0 -9.1-9z"/><path d="m420.33 268.23a9.1 9.1 0 1 0 -3.3 17.9 9.7 9.7 0 0 0 1.7.1 9.07 9.07 0 0 0 1.6-18z"/><path d="m72.83 286.63a9.16 9.16 0 0 0 7.3-10.6 9.06 9.06 0 1 0 -8.9 10.8c.5-.1 1-.1 1.6-.2z"/><path d="m345.83 110.93a9.12 9.12 0 0 0 12.7-1.8 9.07 9.07 0 1 0 -12.7 1.8z"/><path d="m400.13 330a9.07 9.07 0 1 0 -4.8 16.8 9.09 9.09 0 0 0 4.8-16.8z"/><path d="m413.13 300a9 9 0 0 0 -11.7 5.2 9 9 0 0 0 5.2 11.7 9.6 9.6 0 0 0 3.3.6 9.17 9.17 0 0 0 8.5-5.8 9.18 9.18 0 0 0 -5.3-11.7z"/><path d="m77.13 245.23v-.4a9.1 9.1 0 1 0 -18.2 0v.4a9.1 9.1 0 0 0 18.2 0z"/><path d="m69.43 221.23a8.81 8.81 0 0 0 1.7.2 9.34 9.34 0 1 0 -1.7-.2z"/><path d="m76.73 189.43a9.6 9.6 0 0 0 3.3.6 9 9 0 1 0 -3.3-.6z"/><path d="m89.73 159.52a9.23 9.23 0 0 0 4.8 1.4 9 9 0 0 0 7.7-4.3 9.07 9.07 0 1 0 -12.5 2.9z"/><path d="m229.73 411.83a9 9 0 0 0 -1.6 18h.8a9 9 0 0 0 9-8.3 9.16 9.16 0 0 0 -8.2-9.7z"/><path d="m199.33 406.23a9.09 9.09 0 1 0 -4.9 17.5 10.68 10.68 0 0 0 2.5.3 9.06 9.06 0 0 0 8.7-6.6 9.19 9.19 0 0 0 -6.3-11.2z"/><path d="m170.43 395.13a9 9 0 0 0 -12.1 4.1 9.15 9.15 0 0 0 4.1 12.2 9.68 9.68 0 0 0 4 .9 9.07 9.07 0 0 0 4-17.2z"/><path d="m291 406.13a9.08 9.08 0 0 0 2.5 17.8 7.27 7.27 0 0 0 2.5-.4 9.05 9.05 0 0 0 -5-17.4z"/><path d="m166 95.63a8.46 8.46 0 0 0 4-1 9.06 9.06 0 0 0 -8.1-16.2 9.12 9.12 0 0 0 -4.1 12.2 9.29 9.29 0 0 0 8.2 5z"/><path d="m144 378.92a9.07 9.07 0 1 0 -10.9 14.5 9.07 9.07 0 0 0 10.9-14.5z"/><path d="m375.43 134.73a8.88 8.88 0 0 0 6.1-2.4 9.13 9.13 0 0 0 .6-12.8 9.06 9.06 0 0 0 -13.4 12.2 8.9 8.9 0 0 0 6.7 3z"/><path d="m260.23 77.82h.77a9 9 0 1 0 -9-9.8 9.12 9.12 0 0 0 8.23 9.8z"/><path d="m346.13 378.52a9.06 9.06 0 1 0 11 14.4 9.08 9.08 0 0 0 1.8-12.7 9.29 9.29 0 0 0 -12.8-1.7z"/><path d="m369 357.63a9.1 9.1 0 0 0 6.7 15.2 8.9 8.9 0 0 0 6.7-3 9.06 9.06 0 0 0 -13.4-12.2z"/><path d="m260.63 411.83a9.15 9.15 0 0 0 -8.2 9.9 9 9 0 0 0 9 8.2h.8a9.08 9.08 0 0 0 8.2-9.9 8.94 8.94 0 0 0 -9.8-8.2z"/><path d="m196.43 83.82a7.27 7.27 0 0 0 2.5-.4 8.86 8.86 0 1 0 -2.5.4z"/><path d="m228.43 77.82h.8a9 9 0 1 0 -9.9-8.2 9.26 9.26 0 0 0 9.1 8.2z"/><path d="m395.13 160.73a8.39 8.39 0 0 0 4.8-1.4 9 9 0 1 0 -4.8 1.4z"/><path d="m138.33 112.82a9.5 9.5 0 0 0 5.5-1.8 9.07 9.07 0 1 0 -12.7-1.8 8.68 8.68 0 0 0 7.2 3.6z"/><path d="m250.87 167.61c-10.44-3.48-22.62 0-31.32 7a37.17 37.17 0 0 0 -13.92 29.58c0 5.22 3.48 8.7 8.7 8.7s8.7-3.48 8.7-8.7 1.74-12.18 7-15.66 10.44-5.22 17.4-3.48c8.7 1.74 13.92 8.7 15.66 15.66 1.74 8.7 0 15.66-7 20.88a51.9 51.9 0 0 0 -20.88 41.76c0 5.22 3.48 8.7 8.7 8.7s8.7-3.48 7-8.7c0-10.44 7-20.88 15.66-27.84 12.18-10.44 17.4-24.36 13.92-38.28-3.49-15.7-15.7-26.15-29.62-29.63z"/><path d="m236.95 308.55c-1.74 1.74-1.74 5.22-1.74 7s0 3.48 1.74 5.22 5.22 3.48 7 3.48 5.22-1.74 5.22-3.48c1.74 0 3.48-3.48 3.48-5.22 0-3.48-1.74-5.22-3.48-7a8.41 8.41 0 0 0 -11.89-.29l-.29.29z"/></g></svg>

<svg id="Layer_1" data-name="Layer 1" xmlns="http://www.w3.org/2000/svg" viewBox="0 0 489.74 489.92"><defs><style>.cls-1{fill:#d2e2ef;}.cls-2{fill:#337ab7;}</style></defs><title>help</title><circle id="_Path_" data-name="&lt;Path&gt;" class="cls-1" cx="244.84" cy="244.82" r="176.8"/><path class="cls-2" d="M489.83,244.82a243.67,243.67,0,0,0-71.7-173.2c-95.5-95.5-250.9-95.5-346.4,0-90.3,90.4-95.8,235.3-13.3,332-8.3,17.6-22.3,39.2-44,49.9a18.24,18.24,0,0,0,5.2,34.4,126.71,126.71,0,0,0,19,1.4c21.8,0,54.5-5.3,87.6-30.1A245,245,0,0,0,489.83,244.82ZM130,440.42a8.89,8.89,0,0,0-11.4,1.9,8.34,8.34,0,0,0-1.2.8c-40.3,31.3-79.8,29.2-95,26.8,0-.1-0.1-0.2,0-0.2,28.3-13.9,45.3-41.9,54.5-62.9a14.25,14.25,0,0,0-1.9-11.7c-79.3-89.6-75.1-226,9.5-310.7,88.4-88.4,232.3-88.4,320.7,0A226.82,226.82,0,0,1,130,440.42Z" transform="translate(-0.09)"/><path class="cls-2" d="M108.33,357.52a9.13,9.13,0,0,0-.6,12.8,9.08,9.08,0,0,0,12.8.5,9.13,9.13,0,0,0,.6-12.8A9,9,0,0,0,108.33,357.52Z" transform="translate(-0.09)"/><path class="cls-2" d="M114.23,134.82a8.9,8.9,0,0,0,6.7-3,9.06,9.06,0,1,0-12.8.6A8.88,8.88,0,0,0,114.23,134.82Z" transform="translate(-0.09)"/><path class="cls-2" d="M409.73,213.82a9,9,0,0,0,8.9,7.4,9.85,9.85,0,0,0,1.7-.2,9.11,9.11,0,0,0,7.3-10.6A9.11,9.11,0,0,0,409.73,213.82Z" transform="translate(-0.09)"/><path class="cls-2" d="M89.93,330.52a9.09,9.09,0,0,0,4.8,16.8,8.61,8.61,0,0,0,4.8-1.4,9.17,9.17,0,0,0,2.9-12.5A9.06,9.06,0,0,0,89.93,330.52Z" transform="translate(-0.09)"/><path class="cls-2" d="M319.53,94.63a9.68,9.68,0,0,0,4,.9,9,9,0,0,0,8.1-5,9.1,9.1,0,0,0-16.3-8.1A9.28,9.28,0,0,0,319.53,94.63Z" transform="translate(-0.09)"/><path class="cls-2" d="M401.23,184.13h0a9,9,0,0,0,8.4,5.8,9.6,9.6,0,0,0,3.3-.6A9.05,9.05,0,1,0,401.23,184.13Z" transform="translate(-0.09)"/><path class="cls-2" d="M290.73,83.43a10.68,10.68,0,0,0,2.5.3A9,9,0,1,0,290.73,83.43Z" transform="translate(-0.09)"/><path class="cls-2" d="M88.63,305.73a9.05,9.05,0,1,0-8.5,12.3,9.6,9.6,0,0,0,3.3-.6A9,9,0,0,0,88.63,305.73Z" transform="translate(-0.09)"/><path class="cls-2" d="M319.83,394.92a9.1,9.1,0,1,0,12.1,4.1A8.82,8.82,0,0,0,319.83,394.92Z" transform="translate(-0.09)"/><path class="cls-2" d="M421.63,235.52a9.05,9.05,0,1,0,9.1,9A9.13,9.13,0,0,0,421.63,235.52Z" transform="translate(-0.09)"/><path class="cls-2" d="M420.33,268.23a9.1,9.1,0,1,0-3.3,17.9,9.7,9.7,0,0,0,1.7.1A9.07,9.07,0,0,0,420.33,268.23Z" transform="translate(-0.09)"/><path class="cls-2" d="M72.83,286.63a9.16,9.16,0,0,0,7.3-10.6,9.06,9.06,0,1,0-8.9,10.8C71.73,286.73,72.23,286.73,72.83,286.63Z" transform="translate(-0.09)"/><path class="cls-2" d="M345.83,110.93a9.12,9.12,0,0,0,12.7-1.8A9.07,9.07,0,1,0,345.83,110.93Z" transform="translate(-0.09)"/><path class="cls-2" d="M400.13,330a9.07,9.07,0,1,0-4.8,16.8A9.09,9.09,0,0,0,400.13,330Z" transform="translate(-0.09)"/><path class="cls-2" d="M413.13,300a9,9,0,0,0-11.7,5.2h0a9,9,0,0,0,5.2,11.7,9.6,9.6,0,0,0,3.3.6,9.17,9.17,0,0,0,8.5-5.8h0A9.18,9.18,0,0,0,413.13,300Z" transform="translate(-0.09)"/><path class="cls-2" d="M77.13,245.23v-0.4a9.1,9.1,0,1,0-18.2,0v0.4A9.1,9.1,0,0,0,77.13,245.23Z" transform="translate(-0.09)"/><path class="cls-2" d="M69.43,221.23a8.81,8.81,0,0,0,1.7.2A9.34,9.34,0,1,0,69.43,221.23Z" transform="translate(-0.09)"/><path class="cls-2" d="M76.73,189.43a9.6,9.6,0,0,0,3.3.6A9,9,0,1,0,76.73,189.43Z" transform="translate(-0.09)"/><path class="cls-2" d="M89.73,159.52a9.23,9.23,0,0,0,4.8,1.4,9,9,0,0,0,7.7-4.3A9.07,9.07,0,1,0,89.73,159.52Z" transform="translate(-0.09)"/><path class="cls-2" d="M229.73,411.83a9,9,0,0,0-1.6,18h0.8a9,9,0,0,0,9-8.3A9.16,9.16,0,0,0,229.73,411.83Z" transform="translate(-0.09)"/><path class="cls-2" d="M199.33,406.23a9.09,9.09,0,1,0-4.9,17.5,10.68,10.68,0,0,0,2.5.3,9.06,9.06,0,0,0,8.7-6.6A9.19,9.19,0,0,0,199.33,406.23Z" transform="translate(-0.09)"/><path class="cls-2" d="M170.43,395.13a9,9,0,0,0-12.1,4.1,9.15,9.15,0,0,0,4.1,12.2,9.68,9.68,0,0,0,4,.9A9.07,9.07,0,0,0,170.43,395.13Z" transform="translate(-0.09)"/><path class="cls-2" d="M291,406.13a9.08,9.08,0,0,0,2.5,17.8,7.27,7.27,0,0,0,2.5-.4A9.05,9.05,0,0,0,291,406.13Z" transform="translate(-0.09)"/><path class="cls-2" d="M166,95.63a8.46,8.46,0,0,0,4-1,9.06,9.06,0,0,0-8.1-16.2,9.12,9.12,0,0,0-4.1,12.2A9.29,9.29,0,0,0,166,95.63Z" transform="translate(-0.09)"/><path class="cls-2" d="M144,378.92a9.07,9.07,0,1,0-10.9,14.5A9.07,9.07,0,0,0,144,378.92Z" transform="translate(-0.09)"/><path class="cls-2" d="M375.43,134.73a8.88,8.88,0,0,0,6.1-2.4,9.13,9.13,0,0,0,.6-12.8,9.06,9.06,0,0,0-13.4,12.2A8.9,8.9,0,0,0,375.43,134.73Z" transform="translate(-0.09)"/><path class="cls-2" d="M260.23,77.82H261a9,9,0,1,0-9-9.8A9.12,9.12,0,0,0,260.23,77.82Z" transform="translate(-0.09)"/><path class="cls-2" d="M346.13,378.52a9.06,9.06,0,1,0,11,14.4,9.08,9.08,0,0,0,1.8-12.7A9.29,9.29,0,0,0,346.13,378.52Z" transform="translate(-0.09)"/><path class="cls-2" d="M369,357.63a9.1,9.1,0,0,0,6.7,15.2,8.9,8.9,0,0,0,6.7-3A9.06,9.06,0,0,0,369,357.63Z" transform="translate(-0.09)"/><path class="cls-2" d="M260.63,411.83a9.15,9.15,0,0,0-8.2,9.9,9,9,0,0,0,9,8.2h0.8a9.08,9.08,0,0,0,8.2-9.9A8.94,8.94,0,0,0,260.63,411.83Z" transform="translate(-0.09)"/><path class="cls-2" d="M196.43,83.82a7.27,7.27,0,0,0,2.5-.4A8.86,8.86,0,1,0,196.43,83.82Z" transform="translate(-0.09)"/><path class="cls-2" d="M228.43,77.82h0.8a9,9,0,1,0-9.9-8.2A9.26,9.26,0,0,0,228.43,77.82Z" transform="translate(-0.09)"/><path class="cls-2" d="M395.13,160.73a8.39,8.39,0,0,0,4.8-1.4A9,9,0,1,0,395.13,160.73Z" transform="translate(-0.09)"/><path class="cls-2" d="M138.33,112.82a9.5,9.5,0,0,0,5.5-1.8h0a9.07,9.07,0,1,0-12.7-1.8A8.68,8.68,0,0,0,138.33,112.82Z" transform="translate(-0.09)"/><path class="cls-2" d="M250.87,167.61c-10.44-3.48-22.62,0-31.32,7a37.17,37.17,0,0,0-13.92,29.58c0,5.22,3.48,8.7,8.7,8.7s8.7-3.48,8.7-8.7,1.74-12.18,7-15.66,10.44-5.22,17.4-3.48c8.7,1.74,13.92,8.7,15.66,15.66,1.74,8.7,0,15.66-7,20.88a51.9,51.9,0,0,0-20.88,41.76c0,5.22,3.48,8.7,8.7,8.7s8.7-3.48,7-8.7c0-10.44,7-20.88,15.66-27.84,12.18-10.44,17.4-24.36,13.92-38.28-3.49-15.7-15.7-26.15-29.62-29.63h0Z" transform="translate(-0.09)"/><path class="cls-2" d="M236.95,308.55c-1.74,1.74-1.74,5.22-1.74,7s0,3.48,1.74,5.22,5.22,3.48,7,3.48,5.22-1.74,5.22-3.48c1.74,0,3.48-3.48,3.48-5.22,0-3.48-1.74-5.22-3.48-7a8.41,8.41,0,0,0-11.89-.29l-0.29.29h0Z" transform="translate(-0.09)"/></svg>
